src/lib/packages/icons/src/assets/filled/calendar.svg

<svg width="24" height="24" viewBox="0 0 24 24" fill="none" xmlns="http://www.w3.org/2000/svg">
<path d="M20.7 9.75H3.30005C3.13405 9.75 3 9.88405 3 10.05V18C3 20 4 21 6 21H18C20 21 21 20 21 18V10.05C21 9.88405 20.866 9.75 20.7 9.75ZM8.02002 18C7.46802 18 7.01489 17.552 7.01489 17C7.01489 16.448 7.45801 16 8.01001 16H8.02002C8.57302 16 9.02002 16.448 9.02002 17C9.02002 17.552 8.57202 18 8.02002 18ZM8.02002 14C7.46802 14 7.01489 13.552 7.01489 13C7.01489 12.448 7.45801 12 8.01001 12H8.02002C8.57302 12 9.02002 12.448 9.02002 13C9.02002 13.552 8.57202 14 8.02002 14ZM12.02 18C11.468 18 11.0149 17.552 11.0149 17C11.0149 16.448 11.458 16 12.01 16H12.02C12.573 16 13.02 16.448 13.02 17C13.02 17.552 12.572 18 12.02 18ZM12.02 14C11.468 14 11.0149 13.552 11.0149 13C11.0149 12.448 11.458 12 12.01 12H12.02C12.573 12 13.02 12.448 13.02 13C13.02 13.552 12.572 14 12.02 14ZM16.02 18C15.468 18 15.0149 17.552 15.0149 17C15.0149 16.448 15.458 16 16.01 16H16.02C16.573 16 17.02 16.448 17.02 17C17.02 17.552 16.572 18 16.02 18ZM16.02 14C15.468 14 15.0149 13.552 15.0149 13C15.0149 12.448 15.458 12 16.01 12H16.02C16.573 12 17.02 12.448 17.02 13C17.02 13.552 16.572 14 16.02 14ZM21 7.5V7.94995C21 8.11595 20.866 8.25 20.7 8.25H3.30005C3.13405 8.25 3 8.11595 3 7.94995V7.5C3 5.5 4 4.5 6 4.5H7.25V3C7.25 2.59 7.59 2.25 8 2.25C8.41 2.25 8.75 2.59 8.75 3V4.5H15.25V3C15.25 2.59 15.59 2.25 16 2.25C16.41 2.25 16.75 2.59 16.75 3V4.5H18C20 4.5 21 5.5 21 7.5Z" fill="currentColor"/>
</svg>

<svg xmlns="http://www.w3.org/2000/svg" width="24" height="24" fill="none"><path fill="currentColor" d="M20.7 9.75H3.3a.3.3 0 0 0-.3.3V18c0 2 1 3 3 3h12c2 0 3-1 3-3v-7.95a.3.3 0 0 0-.3-.3ZM8.02 18a1.005 1.005 0 0 1-1.005-1c0-.552.443-1 .995-1h.01a1 1 0 1 1 0 2Zm0-4a1.005 1.005 0 0 1-1.005-1c0-.552.443-1 .995-1h.01a1 1 0 1 1 0 2Zm4 4a1.005 1.005 0 0 1-1.005-1c0-.552.443-1 .995-1h.01a1 1 0 1 1 0 2Zm0-4a1.005 1.005 0 0 1-1.005-1c0-.552.443-1 .995-1h.01a1 1 0 1 1 0 2Zm4 4a1.005 1.005 0 0 1-1.005-1c0-.552.443-1 .995-1h.01a1 1 0 1 1 0 2Zm0-4a1.005 1.005 0 0 1-1.005-1c0-.552.443-1 .995-1h.01a1 1 0 1 1 0 2ZM21 7.5v.45a.3.3 0 0 1-.3.3H3.3a.3.3 0 0 1-.3-.3V7.5c0-2 1-3 3-3h1.25V3c0-.41.34-.75.75-.75s.75.34.75.75v1.5h6.5V3c0-.41.34-.75.75-.75s.75.34.75.75v1.5H18c2 0 3 1 3 3Z"/></svg>
